rospo-dark/small/places/mail-folder-inbox-symbolic.svg

<?xml version="1.0" encoding="UTF-8" standalone="no"?>
<svg
   xmlns:dc="http://purl.org/dc/elements/1.1/"
   xmlns:cc="http://creativecommons.org/ns#"
   xmlns:rdf="http://www.w3.org/1999/02/22-rdf-syntax-ns#"
   xmlns:svg="http://www.w3.org/2000/svg"
   xmlns="http://www.w3.org/2000/svg"
   xmlns:sodipodi="http://sodipodi.sourceforge.net/DTD/sodipodi-0.dtd"
   xmlns:inkscape="http://www.inkscape.org/namespaces/inkscape"
   width="22"
   height="22"
   version="1.1"
   id="svg6"
   sodipodi:docname="mail-folder-inbox-symbolic.svg"
   inkscape:version="0.92.1 r">
  <metadata
     id="metadata12">
    <rdf:RDF>
      <cc:Work
         rdf:about="">
        <dc:format>image/svg+xml</dc:format>
        <dc:type
           rdf:resource="http://purl.org/dc/dcmitype/StillImage" />
      </cc:Work>
    </rdf:RDF>
  </metadata>
  <defs
     id="defs10" />
  <sodipodi:namedview
     pagecolor="#ffffff"
     bordercolor="#666666"
     borderopacity="1"
     objecttolerance="10"
     gridtolerance="10"
     guidetolerance="10"
     inkscape:pageopacity="0"
     inkscape:pageshadow="2"
     inkscape:window-width="769"
     inkscape:window-height="480"
     id="namedview8"
     showgrid="false"
     inkscape:zoom="10.727273"
     inkscape:cx="5.7659422"
     inkscape:cy="11"
     inkscape:window-x="0"
     inkscape:window-y="0"
     inkscape:window-maximized="0"
     inkscape:current-layer="svg6" />
  <g
     id="g4491"
     transform="matrix(1.1428571,0,0,1.1428571,1.8571432,1.8571432)">
    <path
       id="path2"
       d="M 2,1 C 1,1 1,2 1,2 v 12 c 0,0 0,1 1,1 h 12 c 1,0 1,-1 1,-1 V 2 c 0,0 0,-1 -1,-1 h -3 v 2 h 2 v 7 H 10 C 10,11.11 9.11,12 8,12 6.89,12 6,11.11 6,10 H 3 V 3 H 5 V 1 Z"
       style="fill:#d3dae3"
       inkscape:connector-curvature="0" />
    <path
       id="path4"
       d="M 6,1 V 5 H 4 l 4,5 4,-5 H 10 V 1 Z"
       style="fill:#d3dae3"
       inkscape:connector-curvature="0" />
  </g>
</svg>

<svg xmlns="http://www.w3.org/2000/svg" width="22" height="22" version="1.1">
 <path style="fill:#d3dae3" d="M 2,1 C 1,1 1,2 1,2 V 14 C 1,14 1,15 2,15 H 14 C 15,15 15,14 15,14 V 2 C 15,2 15,1 14,1 H 11 V 3 H 13 V 10 H 10 C 10,11.11 9.11,12 8,12 6.89,12 6,11.11 6,10 H 3 V 3 H 5 V 1 Z"/>
 <path style="fill:#d3dae3" d="M 6,1 V 5 H 4 L 8,10 12,5 H 10 V 1 Z"/>
</svg>
